src/assets/ShowerRain.svg

<svg width="512" height="512" xmlns="http://www.w3.org/2000/svg" xml:space="preserve" enable-background="new 0 0 512 512" version="1.1">

 <g>
  <title>Layer 1</title>
  <g id="svg_33">
   <g id="svg_34">
    <path id="svg_35" d="m400,96c-5.312,0 -10.562,0.375 -15.792,1.125c-29.874,-40.708 -77.02,-65.125 -128.208,-65.125s-98.312,24.417 -128.208,65.125c-5.23,-0.75 -10.48,-1.125 -15.792,-1.125c-61.75,0 -112,50.25 -112,112c0,61.75 50.25,112 112,112c13.688,0 27.084,-2.5 39.709,-7.333c28.957,25.25 65.791,39.333 104.291,39.333c38.542,0 75.333,-14.083 104.291,-39.333c12.625,4.833 26.021,7.333 39.709,7.333c61.75,0 112,-50.25 112,-112c0,-61.75 -50.25,-112 -112,-112zm0,192c-17.125,0 -32.916,-5.5 -45.938,-14.667c-23.478,28.292 -58.438,46.667 -98.062,46.667c-39.625,0 -74.584,-18.375 -98.062,-46.667c-13,9.167 -28.813,14.667 -45.938,14.667c-44.188,0 -80,-35.812 -80,-80s35.812,-80 80,-80c10.812,0 21.062,2.208 30.438,6.083c21.229,-41.416 63.853,-70.083 113.562,-70.083s92.334,28.667 113.541,70.083c9.397,-3.875 19.668,-6.083 30.459,-6.083c44.188,0 80,35.812 80,80s-35.812,80 -80,80zm-176,160c0,17.688 14.312,32 32,32s32,-14.312 32,-32s-32,-64 -32,-64s-32,46.312 -32,64z" fill="#1D1D1B" clip-rule="evenodd" fill-rule="evenodd"/>
   </g>
  </g>
 </g>
</svg>

<?xml version="1.0" encoding="utf-8"?>
<!-- Generator: Adobe Illustrator 15.1.0, SVG Export Plug-In . SVG Version: 6.00 Build 0)  -->
<!DOCTYPE svg PUBLIC "-//W3C//DTD SVG 1.1//EN" "http://www.w3.org/Graphics/SVG/1.1/DTD/svg11.dtd">
<svg version="1.1" id="Layer_1" xmlns="http://www.w3.org/2000/svg" xmlns:xlink="http://www.w3.org/1999/xlink" x="0px" y="0px"
	 width="512px" height="512px" viewBox="0 0 512 512" enable-background="new 0 0 512 512" xml:space="preserve">
<g id="Grid_1_">
	<g id="Layer_1_1_">
		<g id="Grid">
			<g>
				<rect fill="none" stroke="#A9CCDB" stroke-miterlimit="10" width="512" height="512"/>
				<line fill="none" stroke="#A9CCDB" stroke-miterlimit="10" x1="0" y1="480" x2="512" y2="480"/>
				<line fill="none" stroke="#A9CCDB" stroke-miterlimit="10" x1="0" y1="448" x2="512" y2="448"/>
				<line fill="none" stroke="#A9CCDB" stroke-miterlimit="10" x1="0" y1="416" x2="512" y2="416"/>
				<line fill="none" stroke="#A9CCDB" stroke-miterlimit="10" x1="0" y1="384" x2="512" y2="384"/>
				<line fill="none" stroke="#A9CCDB" stroke-miterlimit="10" x1="0" y1="352" x2="512" y2="352"/>
				<line fill="none" stroke="#A9CCDB" stroke-miterlimit="10" x1="0" y1="320" x2="512" y2="320"/>
				<line fill="none" stroke="#A9CCDB" stroke-miterlimit="10" x1="0" y1="288" x2="512" y2="288"/>
				<line fill="none" stroke="#A9CCDB" stroke-miterlimit="10" x1="0" y1="256" x2="512" y2="256"/>
				<line fill="none" stroke="#A9CCDB" stroke-miterlimit="10" x1="0" y1="224" x2="512" y2="224"/>
				<line fill="none" stroke="#A9CCDB" stroke-miterlimit="10" x1="0" y1="192" x2="512" y2="192"/>
				<line fill="none" stroke="#A9CCDB" stroke-miterlimit="10" x1="0" y1="160" x2="512" y2="160"/>
				<line fill="none" stroke="#A9CCDB" stroke-miterlimit="10" x1="0" y1="128" x2="512" y2="128"/>
				<line fill="none" stroke="#A9CCDB" stroke-miterlimit="10" x1="0" y1="96" x2="512" y2="96"/>
				<line fill="none" stroke="#A9CCDB" stroke-miterlimit="10" x1="0" y1="64" x2="512" y2="64"/>
				<line fill="none" stroke="#A9CCDB" stroke-miterlimit="10" x1="0" y1="32" x2="512" y2="32"/>
				<line fill="none" stroke="#A9CCDB" stroke-miterlimit="10" x1="480" y1="0" x2="480" y2="512"/>
				<line fill="none" stroke="#A9CCDB" stroke-miterlimit="10" x1="448" y1="0" x2="448" y2="512"/>
				<line fill="none" stroke="#A9CCDB" stroke-miterlimit="10" x1="416" y1="0" x2="416" y2="512"/>
				<line fill="none" stroke="#A9CCDB" stroke-miterlimit="10" x1="384" y1="0" x2="384" y2="512"/>
				<line fill="none" stroke="#A9CCDB" stroke-miterlimit="10" x1="352" y1="0" x2="352" y2="512"/>
				<line fill="none" stroke="#A9CCDB" stroke-miterlimit="10" x1="320" y1="0" x2="320" y2="512"/>
				<line fill="none" stroke="#A9CCDB" stroke-miterlimit="10" x1="288" y1="0" x2="288" y2="512"/>
				<line fill="none" stroke="#A9CCDB" stroke-miterlimit="10" x1="256" y1="0" x2="256" y2="512"/>
				<line fill="none" stroke="#A9CCDB" stroke-miterlimit="10" x1="224" y1="0" x2="224" y2="512"/>
				<line fill="none" stroke="#A9CCDB" stroke-miterlimit="10" x1="192" y1="0" x2="192" y2="512"/>
				<line fill="none" stroke="#A9CCDB" stroke-miterlimit="10" x1="160" y1="0" x2="160" y2="512"/>
				<line fill="none" stroke="#A9CCDB" stroke-miterlimit="10" x1="128" y1="0" x2="128" y2="512"/>
				<line fill="none" stroke="#A9CCDB" stroke-miterlimit="10" x1="96" y1="0" x2="96" y2="512"/>
				<line fill="none" stroke="#A9CCDB" stroke-miterlimit="10" x1="64" y1="0" x2="64" y2="512"/>
				<line fill="none" stroke="#A9CCDB" stroke-miterlimit="10" x1="32" y1="0" x2="32" y2="512"/>
			</g>
		</g>
	</g>
</g>
<g>
	<g>
		<path fill-rule="evenodd" clip-rule="evenodd" fill="#1D1D1B" d="M400,96c-5.312,0-10.562,0.375-15.792,1.125
			C354.334,56.417,307.188,32,256,32s-98.312,24.417-128.208,65.125C122.562,96.375,117.312,96,112,96C50.25,96,0,146.25,0,208
			c0,61.75,50.25,112,112,112c13.688,0,27.084-2.5,39.709-7.333C180.666,337.917,217.5,352,256,352
			c38.542,0,75.333-14.083,104.291-39.333C372.916,317.5,386.312,320,400,320c61.75,0,112-50.25,112-112
			C512,146.25,461.75,96,400,96z M400,288c-17.125,0-32.916-5.5-45.938-14.667C330.584,301.625,295.624,320,256,320
			c-39.625,0-74.584-18.375-98.062-46.667C144.938,282.5,129.125,288,112,288c-44.188,0-80-35.812-80-80s35.812-80,80-80
			c10.812,0,21.062,2.208,30.438,6.083C163.667,92.667,206.291,64,256,64s92.334,28.667,113.541,70.083
			C378.938,130.208,389.209,128,400,128c44.188,0,80,35.812,80,80S444.188,288,400,288z M224,448c0,17.688,14.312,32,32,32
			s32-14.312,32-32s-32-64-32-64S224,430.312,224,448z"/>
	</g>
</g>
</svg>
